images/wallet.svg

<svg height="65" viewBox="0 0 63 65" width="63" xmlns="http://www.w3.org/2000/svg"><path d="m60.9167371 38.0724671h-.973231v-8.7616743c0-1.3870905-.6907374-2.6152357-1.7456425-3.3614665v-1.1929791c0-1.7304989-1.4085301-3.1382828-3.1399463-3.1382828h-.7266842l2.7803514-4.0777364c.9319493-1.3667781.5775621-3.2366716-.7899404-4.1682541l-18.8664793-12.85020167c-.6624118-.45131858-1.4608626-.61788116-2.2488976-.46845726-.7876541.14917-1.4701351.59591826-1.9215659 1.25810609l-16.2841529 23.88281464h-4.5314557l1.0932653-11.0614313c.012321-.124668.09336-.2327052.2064083-.2752345 1.4085301-.5307913 2.6291969-1.5220418 3.4370472-2.7910659.0636373-.0999121.1836716-.1570411.3078977-.1444727l7.1074311.7017972c.5096061.0493848.9629422-.3215724 1.0132423-.8306547.0503002-.5090823-.3217428-.96243209-.831095-1.01270556l-7.1074311-.70179722c-.824998-.08074223-1.6117629.29922866-2.0537942.99340868-.5939477.9331059-1.4914745 1.6618172-2.5270725 2.0520713-.7795247.2937697-1.314789.9935357-1.3970982 1.8264756l-1.1111752 11.2434821h-1.18167157l1.72900277-17.49465712c.0622401-.62968781.6245597-1.09230523 1.2553435-1.02920949l14.362714 1.41806711c.5093521.04913088.9629423-.32157243 1.0132424-.83065471.0503001-.50908229-.3217429-.96243212-.831095-1.01270558l-14.3627141-1.41806711c-1.6466935-.16237313-3.11924195 1.04431692-3.28195519 2.69039196l-1.39366874 14.10069064h-2.37337771c-1.73128918 0-3.13994633 1.4077839-3.13994633 3.1382828v.8137699c-1.4164054.6517777-2.40259243 2.082794-2.40259243 3.7406757v31.5726231c0 2.269923 1.84763994 4.1165841 4.11889319 4.1165841h51.70584681c2.2711262 0 4.1187661-1.8466611 4.1187661-4.1165841v-8.7615473h.973231c1.1487732 0 2.0832629-.9339946 2.0832629-2.0820323v-9.88521c.000127-1.1481646-.9344897-2.0821592-2.0832629-2.0821592zm-5.8588198-14.6019018c.7095364-.000127 1.2865905.5767483 1.2865905 1.2859088v.471885c-.1704615-.021582-.3435904-.0338965-.5197678-.0338965h-3.9319191l1.1753205-1.7238973zm-20.2417301-21.11599684c.1727479-.25327161.433775-.4241506.7350676-.48127954.0720206-.01358399.1442952-.02043946.2160618-.02043946.2282558 0 .4513038.06830081.6441209.19957041l18.8664793 12.85020173c.5230703.3563576.6587282 1.0716118.3023087 1.5944051l-5.9300782 8.6970551h-1.4231375l2.9073718-4.2639768c.4715001-.691514.5103683-1.5715535.1011083-2.296837-.5439017-.9635747-.7644092-2.0981554-.6208761-3.194904.1066972-.8159281-.2525167-1.6124324-.9374112-2.0788584l-9.7803231-6.66148772c-.6850214-.46655296-1.5581602-.50933619-2.2788744-.11159185-.9685312.53447292-2.1057456.74432654-3.2019324.59096709-.8129311-.11400396-1.637421.25289075-2.1019349.93399461l-11.6476512 17.08282097h-1.4231375zm.4081169 15.72835744c-4.0355678 0-7.348262 3.1450113-7.6181805 7.1112828h-4.6970904l10.9363365-16.03964663h.000127c.062113-.09127934.1651266-.1456153.2709347-.1456153.0140993 0 .0281986.00101562.0422978.00291992 1.4909665.20845713 3.0374408-.07667973 4.3548973-.80374063.1036487-.05738285.2367662-.04913089.3393987.02069337l9.7804501 6.66161467c.1023785.0698242.1586486.1906837.1434062.3079884-.1952305 1.491573.1047919 3.0345621.8444321 4.3449729.0593186.1052442.0520784.2400684-.0182909.3435353l-3.6185595 5.3071511h-3.1415976c-.2701726-3.9661446-3.5827397-7.1111559-7.6185615-7.1111559zm5.7601248 7.1114098h-11.5201227c.2654728-2.9439175 2.746691-5.2589089 5.7599979-5.2589089 3.0134339-.0001269 5.494779 2.3149914 5.7601248 5.2589089zm-36.72848061-.4379885c0-.7091605.57705405-1.2860358 1.28659047-1.2860358h2.1903412l-.17033447 1.7238973h-3.3065972zm-2.40259243 4.5544456c0-1.2484577 1.01629088-2.2642101 2.26553733-2.2642101h51.70584681c1.2492464 0 2.2654103 1.0157524 2.2654103 2.2642101v2.5700403h-56.23679444zm56.23679444 31.5726231c0 1.2484577-1.0161639 2.2642101-2.2654103 2.2642101h-51.70584681c-1.24924645 0-2.26553733-1.0157524-2.26553733-2.2642101v-2.5700403h4.99723983c.51189254 0 .92661442-.4146291.92661442-.9261235s-.4148489-.9261235-.92661442-.9261235h-4.99723983v-22.7279215h56.23679444v4.33926h-8.8109028-.000127c-2.7761597 0-5.1809115 1.6173836-6.3221905 3.9585273-.0038106.0078711-.0081293.0154883-.012067.0233594-.0096535.0199317-.0180369.040625-.0274364.0606836-.1359119.2885646-.254041.5872855-.3501955.8955278-.000254.0008887-.000508.0016504-.0007621.0025391-.2051381.6587601-.3157729 1.358653-.3157729 2.0840635 0 3.8734688 3.1529024 7.0247008 7.0282973 7.0247008h.0001271 8.8109027v4.33926h-45.3057927c-.5118925 0-.9266144.4146291-.9266144.9261235s.4148489.9261235.9266144.9261235h45.3059198zm3.0566209-10.8437065c0 .1266992-.1031407.2297852-.2300341.2297852h-11.6373626c-1.9618314 0-3.6722892-1.0967486-4.5496196-2.7089271-.0398845-.073252-.0779906-.1476466-.1144455-.2229298-.0727827-.1506934-.1384523-.3054494-.1965007-.4638869-.2034868-.5542777-.3145027-1.152735-.3145027-1.776583 0-.6238479.1111429-1.2223053.3145027-1.7765829.0581754-.1583106.123845-.3130665.1965007-.4638869.0364549-.0752833.074561-.1496778.1144455-.2229298.8773304-1.6121786 2.5877882-2.7089272 4.5496196-2.7089272h11.6373626c.1267664 0 .2300341.103086.2300341.2297853z" fill="#731982" transform=""/></svg>

<?xml version="1.0" encoding="UTF-8"?>
<svg width="63px" height="65px" viewBox="0 0 63 65" version="1.1" xmlns="http://www.w3.org/2000/svg" xmlns:xlink="http://www.w3.org/1999/xlink">
    <!-- Generator: Sketch 48.2 (47327) - http://www.bohemiancoding.com/sketch -->
    <title>Shape</title>
    <desc>Created with Sketch.</desc>
    <defs></defs>
    <g id="Desktop-HD-Copy-25" stroke="none" stroke-width="1" fill="none" fill-rule="evenodd" transform="translate(-505.000000, -1272.000000)">
        <g id="Group-8" transform="translate(505.000000, 1272.000000)" fill="#731982" fill-rule="nonzero">
            <g id="004-wallet">
                <path d="M60.9167371,38.0724671 L59.9435061,38.0724671 L59.9435061,29.3107928 C59.9435061,27.9237023 59.2527687,26.6955571 58.1978636,25.9493263 L58.1978636,24.7563472 C58.1978636,23.0258483 56.7893335,21.6180644 55.0579173,21.6180644 L54.3312331,21.6180644 L57.1115845,17.540328 C58.0435338,16.1735499 57.6891466,14.3036564 56.3216441,13.3720739 L37.4551648,0.521872233 C36.792753,0.0705536496 35.9943022,-0.0960089332 35.2062672,0.0534149692 C34.4186131,0.202584965 33.7361321,0.649333234 33.2847013,1.31152106 L17.0005484,25.1943357 L12.4690927,25.1943357 L13.562358,14.1329044 C13.574679,14.0082364 13.655718,13.9001992 13.7687663,13.8576699 C15.1772964,13.3268786 16.3979632,12.3356281 17.2058135,11.066604 C17.2694508,10.9666919 17.3894851,10.9095629 17.5137112,10.9221313 L24.6211423,11.6239285 C25.1307484,11.6733133 25.5840845,11.3023561 25.6343846,10.7932738 C25.6846848,10.2841915 25.3126418,9.83084171 24.8032896,9.78056824 L17.6958585,9.07877102 C16.8708605,8.99802879 16.0840956,9.37799968 15.6420643,10.0721797 C15.0481166,11.0052856 14.1505898,11.7339969 13.1149918,12.124251 C12.3354671,12.4180207 11.8002028,13.1177867 11.7178936,13.9507266 L10.6067184,25.1942087 L9.42504683,25.1942087 L11.1540496,7.69955158 C11.2162897,7.06986377 11.7786093,6.60724635 12.4093931,6.67034209 L26.7721071,8.0884092 C27.2814592,8.13754008 27.7350494,7.76683677 27.7853495,7.25775449 C27.8356496,6.7486722 27.4636066,6.29532237 26.9542545,6.24504891 L12.5915404,4.8269818 C10.9448469,4.66460867 9.47229845,5.87129872 9.30958521,7.51737376 L7.91591647,21.6180644 L5.54253876,21.6180644 C3.81124958,21.6180644 2.40259243,23.0258483 2.40259243,24.7563472 L2.40259243,25.5701171 C0.986187027,26.2218948 0,27.6529111 0,29.3107928 L0,60.8834159 C0,63.1533389 1.84763994,65 4.11889319,65 L55.82474,65 C58.0958662,65 59.9435061,63.1533389 59.9435061,60.8834159 L59.9435061,52.1218686 L60.9167371,52.1218686 C62.0655103,52.1218686 63,51.187874 63,50.0398363 L63,40.1546263 C63.000127,39.0064617 62.0655103,38.0724671 60.9167371,38.0724671 Z M55.0579173,23.4705653 C55.7674537,23.4704383 56.3445078,24.0473136 56.3445078,24.7564741 L56.3445078,25.2283591 C56.1740463,25.2067771 56.0009174,25.1944626 55.82474,25.1944626 L51.8928209,25.1944626 L53.0681414,23.4705653 L55.0579173,23.4705653 Z M34.8161872,2.35456846 C34.9889351,2.10129685 35.2499622,1.93041786 35.5512548,1.87328892 C35.6232754,1.85970493 35.69555,1.85284946 35.7673166,1.85284946 C35.9955724,1.85284946 36.2186204,1.92115027 36.4114375,2.05241987 L55.2779168,14.9026216 C55.8009871,15.2589792 55.936645,15.9742334 55.5802255,16.4970267 L49.6501473,25.1940818 L48.2270098,25.1940818 L51.1343816,20.930105 C51.6058817,20.238591 51.6447499,19.3585515 51.2354899,18.633268 C50.6915882,17.6696933 50.4710807,16.5351126 50.6146138,15.438364 C50.721311,14.6224359 50.3620971,13.8259316 49.6772026,13.3595056 L39.8968795,6.69801788 C39.2118581,6.23146492 38.3387193,6.18868169 37.6180051,6.58642603 C36.6494739,7.12089895 35.5122595,7.33075257 34.4160727,7.17739312 C33.6031416,7.06338916 32.7786517,7.43028387 32.3141378,8.11138773 L20.6664866,25.1942087 L19.2433491,25.1942087 L34.8161872,2.35456846 Z M35.2243041,18.0829259 C31.1887363,18.0829259 27.8760421,21.2279372 27.6061236,25.1942087 L22.9090332,25.1942087 L33.8453697,9.15456207 C33.8454967,9.15456207 33.8454967,9.15456207 33.8454967,9.15456207 C33.9076097,9.06328273 34.0106233,9.00894677 34.1164314,9.00894677 C34.1305307,9.00894677 34.14463,9.00996239 34.1587292,9.01186669 C35.6496957,9.22032382 37.19617,8.93518696 38.5136265,8.20812606 C38.6172752,8.15074321 38.7503927,8.15899517 38.8530252,8.22881943 L48.6334753,14.8904341 C48.7358538,14.9602583 48.7921239,15.0811178 48.7768815,15.1984225 C48.581651,16.6899955 48.8816734,18.2329846 49.6213136,19.5433954 C49.6806322,19.6486396 49.673392,19.7834638 49.6030227,19.8869307 L45.9844632,25.1940818 L42.8428656,25.1940818 C42.572693,21.2279372 39.2601259,18.0829259 35.2243041,18.0829259 Z M40.9844289,25.1943357 L29.4643062,25.1943357 C29.729779,22.2504182 32.2109972,19.9354268 35.2243041,19.9354268 C38.237738,19.9352999 40.7190831,22.2504182 40.9844289,25.1943357 Z M4.25594829,24.7563472 C4.25594829,24.0471867 4.83300234,23.4703114 5.54253876,23.4703114 L7.73287996,23.4703114 L7.56254549,25.1942087 L4.25594829,25.1942087 L4.25594829,24.7563472 Z M1.85335586,29.3107928 C1.85335586,28.0623351 2.86964674,27.0465827 4.11889319,27.0465827 L55.82474,27.0465827 C57.0739864,27.0465827 58.0901503,28.0623351 58.0901503,29.3107928 L58.0901503,31.8808331 L1.85335586,31.8808331 L1.85335586,29.3107928 Z M58.0901503,60.8834159 C58.0901503,62.1318736 57.0739864,63.147626 55.82474,63.147626 L4.11889319,63.147626 C2.86964674,63.147626 1.85335586,62.1318736 1.85335586,60.8834159 L1.85335586,58.3133756 L6.85059569,58.3133756 C7.36248823,58.3133756 7.77721011,57.8987465 7.77721011,57.3872521 C7.77721011,56.8757577 7.36236121,56.4611286 6.85059569,56.4611286 L1.85335586,56.4611286 L1.85335586,33.7332071 L58.0901503,33.7332071 L58.0901503,38.0724671 L49.2792475,38.0724671 L49.2791205,38.0724671 C46.5029608,38.0724671 44.098209,39.6898507 42.95693,42.0309944 C42.9531194,42.0388655 42.9488007,42.0464827 42.944863,42.0543538 C42.9352095,42.0742855 42.9268261,42.0949788 42.9174266,42.1150374 C42.7815147,42.403602 42.6633856,42.7023229 42.5672311,43.0105652 C42.5669771,43.0114539 42.5667231,43.0122156 42.566469,43.0131043 C42.3613309,43.6718644 42.2506961,44.3717573 42.2506961,45.0971678 C42.2506961,48.9706366 45.4035985,52.1218686 49.2789934,52.1218686 L49.2791205,52.1218686 L58.0900232,52.1218686 L58.0900232,56.4611286 L12.7842305,56.4611286 C12.272338,56.4611286 11.8576161,56.8757577 11.8576161,57.3872521 C11.8576161,57.8987465 12.272465,58.3133756 12.7842305,58.3133756 L58.0901503,58.3133756 L58.0901503,60.8834159 Z M61.1467712,50.0397094 C61.1467712,50.1664086 61.0436305,50.2694946 60.9167371,50.2694946 L49.2793745,50.2694946 C47.3175431,50.2694946 45.6070853,49.172746 44.7297549,47.5605675 C44.6898704,47.4873155 44.6517643,47.4129209 44.6153094,47.3376377 C44.5425267,47.1869443 44.4768571,47.0321883 44.4188087,46.8737508 C44.2153219,46.3194731 44.104306,45.7210158 44.104306,45.0971678 C44.104306,44.4733199 44.2154489,43.8748625 44.4188087,43.3205849 C44.4769841,43.1622743 44.5426537,43.0075184 44.6153094,42.856698 C44.6517643,42.7814147 44.6898704,42.7070202 44.7297549,42.6337682 C45.6070853,41.0215896 47.3175431,39.924841 49.2793745,39.924841 L60.9167371,39.924841 C61.0435035,39.924841 61.1467712,40.027927 61.1467712,40.1546263 L61.1467712,50.0397094 Z" id="Shape"></path>
            </g>
        </g>
    </g>
</svg>
